X:1
T:Title
%%score { ( 1 3 ) | ( 2 4 ) }
L:1/8
Q:1/4=120
M:6/4
K:C
V:1 treble nm="Grand Piano"
V:3 treble 
V:2 bass 
V:4 bass 
V:1
 [EG]2 [Ge]2 [Ec]2 [EG]4 [FA]2 | [EG]6 .E6 | G2 A2 B2 c4 [CGB]2 | [FA]6- [B,F-A-]4 [A,FA]2 | %4
w: G.~A.~Macfarren * * * *||||
 [Fd]4 [FG]2 G2 A2 [DFB]2 | [CEc]6 .[EA]6 | G2- [Ge]2 [Gd]2 [^Fc]4 [FA]2 | G12 | %8
w: ||||
 G4 G2 .[E_B]4 [CEG]2 | [CFc]6 [CFA]6 | [^FA]4 [FA]2 .[Fc]4 [DFA]2 | d12 | .[EG]6 z6 | %13
w: |||||
 [_B,EG]6 .[B,CE]6 | [A,CF]2 [DG]2 [CFA]2 [DFB]4 [B,FG]2 | [CEc]12 |] %16
w: |||
V:2
 [C,C]4 [C,C]2 [C,C]4 [C,C]2 | [C,C]6 .[C,G,C]6 | [E,G,C]4 [E,G,C]2 [E,G,C]4 E,2 | %3
 F,4 E,2 D,4 C,2 | z6[K:treble] .B,6[K:bass] | A,,6 .C,6 | z2 C2 [D,B,]2 [D,A,]4 [D,C]2 | %7
 [G,B,]12 | [G,_B,D]4 [G,B,D]2 z2 A2 _B,,2 | A,,6 F,6 | [D,D]4 [D,D]2 z2[K:treble] B2[K:bass] C,2 | %11
 B,,6 G,,6 | z2 G2 [C,_B,]2 C,4 C,2 | C,6 .C,6 | z2 _B,2 F,2 D,4 G,2 | C,12 |] %16
V:3
 x12 | x12 | x12 | C6 z6 | x12 | x12 | .[DB]6 z6 | x12 | x12 | x12 | x12 | [DG]6 [B,F]6 | %12
 _B,2- [B,e]2 [Ec]2 [B,EG]4 [A,FA]2 | x12 | x12 | x12 |] %16
V:4
 x12 | x12 | x12 | x12 | [B,,G,]4 [D,B,]2[K:treble] [G,F]2- [G,CF]2[K:bass] G,,2 | x12 | .D,6 z6 | %7
 x12 | z6 .[C,G,]6 | x12 | z6 .[D,A,]6[K:treble][K:bass] | x12 | .C,6 z6 | x12 | .F,6 z6 | x12 |] %16

